!!!COM: Palestrina, Giovanni Perluigi da
!!!OPR: In illo tempore
!!!OTL: Credo
**kern	**kern	**kern	**kern
*Ibass	*Itenor	*Icalto	*Icant
!Bassus	!Tenor	!Altus	!Cantus
*clefF4	*clefGv2	*clefG2	*clefG2
*k[]	*k[]	*k[]	*k[]
*A:aeo	*A:aeo	*A:aeo	*A:aeo
*M4/2	*M4/2	*M4/2	*M4/2
=1	=1	=1	=1
0r	0r	0e	0r
=2	=2	=2	=2
0r	0r	1e	0r
.	.	1d	.
=3	=3	=3	=3
0r	0r	1.f	0a
.	.	4e	.
.	.	4d	.
=4	=4	=4	=4
0r	0r	2c	1a
.	.	2d	.
.	.	1e	1g
=5	=5	=5	=5
0r	0r	2.A	1.cc
.	.	4B	.
.	.	4c	.
.	.	4d	.
.	.	[2e	4b
.	.	.	4a
=6	=6	=6	=6
2r	0r	4e]	2g
.	.	4d	.
2A	.	2c	2a
2A	.	1B	1b
2G	.	.	.
=7	=7	=7	=7
2.c	2r	2.A	0e
.	2A	.	.
8B	.	8G	.
8A	.	8F	.
2c	2A	1E	.
2B	2G	.	.
=8	=8	=8	=8
2.A	2.c	1r	2r
.	.	.	2a
8G	8B	.	.
8F	8A	.	.
1E	2c	2r	2a
.	2B	2e	2g
=9	=9	=9	=9
1F	1A	2e	2cc
.	.	2d	4b
.	.	.	4a
1E	[1e	2.g	2cc
.	.	.	2b
.	.	8f	.
.	.	8e	.
=10	=10	=10	=10
2C	2e]	2g	2e
2D	4d	2f	2.a
.	4c	.	.
1E	1B	1e	.
.	.	.	8g#
.	.	.	8f#
.	.	.	2g#
=11	=11	=11	=11
2r	1A	2.c	0a
1AA	.	.	.
.	.	8B	.
.	.	8A	.
.	2r	[1c	.
2AA	[2E	.	.
=12	=12	=12	=12
2.C	2E]	1c]	2r
.	2E	.	1e
4D	.	.	.
[1E	2.G	1B	.
.	.	.	2e
.	4A	.	.
=13	=13	=13	=13
2E]	2B	0r	2.g
2.C	2.c	.	.
.	.	.	4f
.	.	.	1e
4D	4B	.	.
4E	4G	.	.
4F	4A	.	.
=14	=14	=14	=14
1G	4B	0r	2.d
.	4c	.	.
.	2.d	.	.
.	.	.	4e
2F	.	.	2f
.	4c	.	.
2E	[2c	.	2g
=15	=15	=15	=15
1D	2c]	1r	2a
.	2B	.	4g
.	.	.	4f
1C	[1c	2r	1e
.	.	[2e	.
=16	=16	=16	=16
2r	1c]	2e]	2r
1C	.	2e	1e
.	1r	2.g	.
2C	.	.	2e
.	.	4f	.
=17	=17	=17	=17
2.E	1r	1e	2.g
4F	.	.	4a
2G	2r	2d	2b
2C	[2E	4c	[2cc
.	.	4d	.
=18	=18	=18	=18
1C	2E]	4e	4cc]
.	.	4f	4b
.	2E	1g	4g
.	.	.	4a
1r	2.G	.	4b
.	.	.	4cc
.	.	4f	[2dd
.	4A	4e	.
=19	=19	=19	=19
0r	2B	2d	2dd]
.	2c	2e	1cc
.	1G	1d	.
.	.	.	2b
=20	=20	=20	=20
2r	1A	2.c	2cc
1A	.	.	1cc
.	.	4d	.
.	2r	2.e	.
2A	[2e	.	2cc
.	.	4f#	.
=21	=21	=21	=21
2G	2e]	1g	2b
2E	2e	.	2g
2G	2d	1r	2b
2G	2B	.	2b
=22	=22	=22	=22
2F	2d	2r	1a
2D	2d	1f	.
2.F	2c	.	2r
.	2A	2f	[2a
4G	.	.	.
=23	=23	=23	=23
1A	1.c	2e	2a]
.	.	2c	2a
[1E	.	2.e	2g
.	4B	.	2e
.	4A	8d	.
.	.	8c	.
=24	=24	=24	=24
1E]	1G	2B	2g
.	.	2c	2g
1D	1A	[1d	2f
.	.	.	2d
=25	=25	=25	=25
1D	1A	1d]	2.f
.	.	.	4g
2.F	1A	2r	2.a
.	.	[2A	.
4G	.	.	8g
.	.	.	8f
=26	=26	=26	=26
1A	2.c	2A]	1e
.	.	2.c	.
.	4d	.	.
2.AA	2e	.	2.c
.	.	4d	.
.	[2c	[2e	.
4BB	.	.	4d
=27	=27	=27	=27
2.C	4c]	4e]	1e
.	4B	4d	.
.	1A	2c	.
4D	.	.	.
1E	.	1B	1e
.	2G#	.	.
=28	=28	=28	=28
1AA	1A	2A	2r
.	.	2c	2e
1r	1r	2c	2e
.	.	2d	2f
=29	=29	=29	=29
1r	2r	2e	2g
.	2A	2c	2e
2r	2A	2f	2a
2E	2B	[2e	2g
=30	=30	=30	=30
2E	2c	2e]	2g
2F	2A	2.d	2a
2G	2d	.	2.b
.	.	4G	.
2E	[2e	[2g	.
.	.	.	4g
=31	=31	=31	=31
1A	2e]	2g]	1cc
.	4d	2f#	.
.	4c	.	.
1G	2d	2.g	1b
.	[2e	.	.
.	.	4e	.
=32	=32	=32	=32
2A	2e]	1f	1r
2B	2d	.	.
2c	2.e	1e	2r
[2C	.	.	[2e
.	4d	.	.
=33	=33	=33	=33
2C]	2c	1r	2e]
2D	4B	.	2f
.	4A	.	.
2E	1G	2r	2g
2C	.	[2c	2e
=34	=34	=34	=34
1F	2r	2c]	1a
.	2A	2d	.
1E	2B	1e	1g
.	[2c	.	.
=35	=35	=35	=35
1.F	2c]	1c	2r
.	2A	.	1a
.	1d	1f	.
2G	.	.	2b
=36	=36	=36	=36
2.A	0c	1e	2.cc
4A	.	.	4cc
1F	.	2r	1a
.	.	[2f	.
=37	=37	=37	=37
2B-	1r	2f]	1dd
2B-	.	2g	.
1A	2r	2a	[1cc
.	[2A	2e	.
=38	=38	=38	=38
0r	2A]	2f	2cc]
.	2B	2.g	4b
.	.	.	4a
.	2.c	.	2g
.	.	4f	.
.	.	[2e	[2cc
.	4c	.	.
=39	=39	=39	=39
0r	1A	4e]	4cc]
.	.	4d	4b
.	.	4c	1a
.	.	8B	.
.	.	8A	.
.	2d	2B	.
.	2d	2B	2g#
=40	=40	=40	=40
2r	1c	0A	0a
1F	.	.	.
.	2r	.	.
2F	2c	.	.
=41	=41	=41	=41
2E	2c	1r	0r
1D	2B	.	.
.	1A	1f	.
[2F	.	.	.
=42	=42	=42	=42
2F]	1.c	1f	2r
4E	.	.	2cc
4D	.	.	.
2.C	.	[1e	1cc
.	4B	.	.
4D	4A	.	.
=43	=43	=43	=43
4E	4G	2e]	1b
4F	4A	.	.
2G	4B	1d	.
.	4c	.	.
1D	2.d	.	1a
.	.	[2f	.
.	8c	.	.
.	8B	.	.
=44	=44	=44	=44
0r	1A	2f]	1.cc
.	.	4e	.
.	.	4d	.
.	1r	2c	.
.	.	2e	4b
.	.	.	4a
=45	=45	=45	=45
0r	0r	2e	2g
.	.	2c	2a
.	.	2d	2f
.	.	2e	2g
=46	=46	=46	=46
2r	0r	4A	2.a
.	.	4B	.
2A	.	4c	.
.	.	4d	4b
2A	.	4e	4cc
.	.	4c	4a
2F	.	2f	[2dd
=47	=47	=47	=47
2G	0r	1e	2dd]
2A	.	.	2cc#
2D	.	2.f	2dd
[2F	.	.	[2a
.	.	8e	.
.	.	8d	.
=48	=48	=48	=48
2F]	2r	2.c	2a]
2F	2c	.	2a
.	.	4d	.
1E	2c	1e	[1g
.	[2B	.	.
=49	=49	=49	=49
1D	2B]	0r	2g]
.	1A	.	2f
2F	.	.	2a
4E	[2c	.	4g
4D	.	.	4f
=50	=50	=50	=50
2C	2c]	0r	2e
1E	4B	.	2g
.	4A	.	.
.	2G	.	2g
2C	2A	.	2e
=51	=51	=51	=51
2.D	2F	0r	1f
.	1A	.	.
4C	.	.	.
1BB	.	.	1d
.	2G#	.	.
=52	=52	=52	=52
2AA	[0A	2r	1r
2.D	.	1f	.
.	.	.	2r
4E	.	.	.
4F	.	2f	[2cc
4G	.	.	.
=53	=53	=53	=53
4A	1A]	1e	2cc]
4B	.	.	.
2c	.	.	2cc
2G	1r	2d	2b
2F	.	2f	2a
=54	=54	=54	=54
2.A	0r	2c	1cc
.	.	2e	.
8G	.	.	.
8F	.	.	.
2E	.	2e	2g
2F	.	2c	2a
=55	=55	=55	=55
1D	1r	1d	2a
.	.	.	2f
1r	2r	2e	2g
.	[2c	4A	2a
.	.	4B	.
=56	=56	=56	=56
0r	2c]	4c	4e
.	.	4d	4f
.	2c	4e	4g
.	.	4f	4a
.	2B	2g	2b
.	2A	[2f	[2cc
=57	=57	=57	=57
0r	1c	2f]	4cc]
.	.	.	8b
.	.	.	8a
.	.	2e	4g
.	.	.	4a
.	2G	2d	2b
.	2A	4c	[2cc
.	.	4B	.
=58	=58	=58	=58
0r	2A	2A	4cc]
.	.	.	4b
.	2F	1d	2a
.	2G	.	2g
.	2A	2c	4f
.	.	.	4e
=59	=59	=59	=59
0r	1D	2.d	4f
.	.	.	4g
.	.	.	1a
.	.	4c	.
.	1E	1B	.
.	.	.	2g#
=60	=60	=60	=60
2r	1A	1A	2a
1D	.	.	1f
.	1r	2r	.
2E	.	[2c	2g
=61	=61	=61	=61
2.F	1A	2c]	2.a
.	.	2d	.
4F	.	.	4a
1E	2B	2.e	1g
.	[2c	.	.
.	.	4e	.
=62	=62	=62	=62
2.F	4c]	2A	2.a
.	4c	.	.
.	2A	1c	.
8E	.	.	8g
8D	.	.	8f
2C	4c	.	4e
.	4B	.	4f
2E	4A	2c	[2g
.	4G	.	.
=63	=63	=63	=63
1D	2A	1d	2g]
.	2A	.	2f#
1G	2G	2r	1g
.	2B	2d	.
=64	=64	=64	=64
2r	2c	2e	2r
2C	2c	2e	2g
2C	1c	1e	2g
2C	.	.	2g
=65	=65	=65	=65
1C	1.c	1.e	1g
[1C	.	.	[1g
.	2c	2e	.
=66	=66	=66	=66
2C]	1c	1e	2g]
2C	.	.	2g
[1G	2r	2r	[1g
.	2B	2d	.
=67	=67	=67	=67
0G]	2B	2d	1g_
.	2B	2d	.
.	1B	1d	1g_
=68	=68	=68	=68
1r	2c	2e	1g]
.	2d	2B	.
1C	2.e	1c	2r
.	.	.	2e
.	4d	.	.
=69	=69	=69	=69
2C	2.c	1G	2e
2C	.	.	2e
.	4B	.	.
1C	2A	1c	1e
.	2G	.	.
=70	=70	=70	=70
2D	2d	2A	2f
2E	1c	2G	2g
1F	.	2c	[1a
.	4B	2d	.
.	4A	.	.
=71	=71	=71	=71
0E	0B	2e	2a]
.	.	2e	2g#
.	.	1g	2r
.	.	.	2b
=72	=72	=72	=72
0r	2r	2d	1dd
.	2B	2d	.
.	1d	1f	2a
.	.	.	2a
=73	=73	=73	=73
1r	1A	2e	1cc
.	.	4c	.
.	.	4d	.
1E	1r	4e	2b
.	.	4f	.
.	.	[2g	4g
.	.	.	4a
=74	=74	=74	=74
1G	1B	4g]	4b
.	.	4f	4cc
.	.	2.d	2.dd
2D	1d	.	.
.	.	4e	4cc
2D	.	[2f	[2a
=75	=75	=75	=75
1F	2A	4f]	4a]
.	.	4e	4b
.	2A	4c	1cc
.	.	4d	.
1E	1c	[1e	.
.	.	.	4b
.	.	.	4a
=76	=76	=76	=76
1E	1B	1e]	4g
.	.	.	4f
.	.	.	4e
.	.	.	4d
[1AA	[1A	2.e	2.c
.	.	4d	4d
=77	=77	=77	=77
1AA]	1A]	1c	1e
[1E	[1G#	[1B	[1e
=78	=78	=78	=78
1E]	1G#]	1B]	1e]
!! Et incarnatus
*Ibass	*Itenor	*Icalto	*Icant
!Bassus	!Tenor	!Altus	!Cantus
*clefF4	*clefGv2	*clefG2	*clefG2
*k[]	*k[]	*k[]	*k[]
*A:aeo	*A:aeo	*A:aeo	*A:aeo
*M4/2	*M4/2	*M4/2	*M4/2
=79	=79	=79	=79
0A	0c#	0e	0a
=80	=80	=80	=80
1D	1d	1f	1a
1E	2B	2.e	1g
.	[2e	.	.
.	.	4d	.
=81	=81	=81	=81
1.A	4e]	4c	1.cc
.	4d	4B	.
.	4c	2A	.
.	4B	.	.
.	2A	2c	.
4G	2B	2d	4b
4F	.	.	4a
=82	=82	=82	=82
2E	1c	1e	2g
1A	.	.	2a
.	1B	1E	1b
2G#	.	.	.
=83	=83	=83	=83
1A	1.c	0e	2r
.	.	.	2e
[1E	.	.	[1g
.	4B	.	.
.	4A	.	.
=84	=84	=84	=84
1E]	2B	1e	1g]
.	1c	.	.
1G	.	2d	1g
.	2B	2d	.
=85	=85	=85	=85
2D	1d	1.f	2a
2D	.	.	1a
[1F	1c	.	.
.	.	4e	4g
.	.	4d	4f
=86	=86	=86	=86
1F]	2.A	2c	1a
.	.	2d	.
.	4B	.	.
1C	1c	1e	1g
=87	=87	=87	=87
1F	1.A	1c	2r
.	.	.	1f
1D	.	1d	.
.	2A	.	2f
=88	=88	=88	=88
1F	1A	1c	1f
1C	1G	2.c	2e
.	.	.	[2cc
.	.	4d	.
=89	=89	=89	=89
2.C	1.c	1e	2cc]
.	.	.	4b
4D	.	.	4a
[1E	.	[1e	2.g
.	4B	.	.
.	4A	.	4a
=90	=90	=90	=90
2E]	2G	2e]	2b
2F	2A	2c	2a
1E	[1B	2e	1g#
.	.	2e	.
=91	=91	=91	=91
1E	1B]	2.g	2r
.	.	.	2e
.	.	4f	.
1E	1B	1e	1g
=92	=92	=92	=92
1D	1d	1A	1f
[1F	[1c	2r	2.a
.	.	[2A	.
.	.	.	4b
=93	=93	=93	=93
2F]	2c]	4A]	1.cc
.	.	4B	.
4E	1e	4c	.
4D	.	4d	.
2C	.	2e	.
2D	4d	2f	4b
.	4c	.	4a
=94	=94	=94	=94
0E	2B	0e	2g#
.	2c	.	1a
.	1B	.	.
.	.	.	2g#
=95	=95	=95	=95
0A	1A	2r	1a
.	.	1e	.
.	1r	.	1cc
.	.	2f	.
=96	=96	=96	=96
0r	0r	2e	2cc
.	.	2d	2b
.	.	2f	2a
.	.	4e	[2cc
.	.	4d	.
=97	=97	=97	=97
0r	1r	2c	2cc]
.	.	2d	4b
.	.	.	4a
.	1c	2.e	2g
.	.	.	2a
.	.	4f	.
=98	=98	=98	=98
0r	2c	2g	2e
.	2B	2d	2g
.	2A	2f	1a
.	[2c	[2e	.
=99	=99	=99	=99
0r	2c]	2e]	1e
.	4B	4d	.
.	4A	4c	.
.	2G	2B	2e
.	2A	2c	4e
.	.	.	4f
=100	=100	=100	=100
0r	2E	2e	4g
.	.	.	4a
.	2G	2.d	2.b
.	1A	.	.
.	.	4c	4a
.	.	4c	[2a
.	.	8B	.
.	.	8A	.
=101	=101	=101	=101
2r	1E	1B	2a]
2E	.	.	2g#
1F	2r	1A	1a
.	2c	.	.
=102	=102	=102	=102
2E	2c	0r	0r
2D	2B	.	.
2F	2A	.	.
4E	[2c	.	.
4D	.	.	.
=103	=103	=103	=103
2C	2c]	0r	0r
2.E	4B	.	.
.	4A	.	.
.	2G	.	.
4D	.	.	.
2C	[2A	.	.
=104	=104	=104	=104
1BB	2A]	1r	1b
.	2G#	.	.
1AA	1A	2r	1cc
.	.	[2e	.
=105	=105	=105	=105
0r	0r	2e]	2b
.	.	2f	2a
.	.	2e	2cc
.	.	2d	2b
=106	=106	=106	=106
0r	2r	2f	2.a
.	1A	4e	.
.	.	4d	8g
.	.	.	8f
.	.	2.c	[1e
.	2c	.	.
.	.	8B	.
.	.	8A	.
=107	=107	=107	=107
1r	2B	2G	1e]
.	2A	1A	.
2r	2c	.	[1e
[2E	4B	4G	.
.	4A	4A	.
=108	=108	=108	=108
2E]	2G	4B	2e]
.	.	8A	.
.	.	8B	.
2C	1A	2c	2e
2D	.	1B	2f
2E	2G#	.	2e
=109	=109	=109	=109
1AA	1A	1c#	1e
1r	1r	1r	1r
!! Et resurrexit
*Ibass	*Itenor	*Icalto	*Icant
!Bassus	!Tenor	!Altus	!Cantus
*clefF4	*clefGv2	*clefG2	*clefG2
*k[]	*k[]	*k[]	*k[]
*A:aeo	*A:aeo	*A:aeo	*A:aeo
*M3/2	*M3/2	*M3/2	*M3/2
=110	=110	=110	=110
2E	2B	2e	2g#
2E	2B	2e	2g#
2E	2B	2e	2g#
=111	=111	=111	=111
1D	1d	1f#	1a
2D	2d	2f#	2a
=112	=112	=112	=112
1G	2d	1.g	1b
.	2B	.	.
2E	[2G	.	2b
=113	=113	=113	=113
2C	2G]	2e	2cc
1F	1A	2c	1a
.	.	2d	.
!! secundum Scripturas
*Ibass	*Itenor	*Icalto	*Icant
!Bassus	!Tenor	!Altus	!Cantus
*clefF4	*clefGv2	*clefG2	*clefG2
*k[]	*k[]	*k[]	*k[]
*A:aeo	*A:aeo	*A:aeo	*A:aeo
*M4/2	*M4/2	*M4/2	*M4/2
=114	=114	=114	=114
0E	2B	2e	2g#
.	2B	2e	2g#
.	2B	2e	2g#
.	2B	2e	2g#
=115	=115	=115	=115
2r	2.c	2.e	2.a
2A	.	.	.
.	4B	4d	4g
2A	2A	2c	2f
2B	2G	2B	[2e
=116	=116	=116	=116
2c	1F	1A	2e]
2.A	.	.	2d
.	1E	1B	[1e
8G#	.	.	.
8F#	.	.	.
2G#	.	.	.
=117	=117	=117	=117
2.A	1r	2r	1e]
.	.	2c	.
4G	.	.	.
2F	2r	2d	1r
2E	2G	2e	.
=118	=118	=118	=118
1D	2A	2f	1r
.	2B	2d	.
1C	2c	4e	1g
.	.	4f	.
.	2G	4g	.
.	.	4e	.
=119	=119	=119	=119
0r	1d	1f	2a
.	.	.	2b
.	2.c	2.e	2cc
.	.	.	2g
.	8B	8d	.
.	8A	8c	.
=120	=120	=120	=120
0r	2G	2B	1dd
.	2B	2d	.
.	2.A	4e	2.cc
.	.	4d	.
.	.	4c	.
.	4B	4d	8b
.	.	.	8a
=121	=121	=121	=121
1r	2c	4e	4g
.	.	4f	4a
.	2G	1g	4b
.	.	.	4g
1D	1d	.	1a
.	.	2f#	.
=122	=122	=122	=122
2E	2r	2g	1r
2F	2A	4f	.
.	.	4e	.
2G	2B	1d	2r
2D	[2d	.	2d
=123	=123	=123	=123
1A	4d]	2r	2e
.	4c	.	.
.	2.c	2c	2f
2.G	.	2d	2g
.	4B	.	.
.	2B	2e	2g
8F	.	.	.
8E	.	.	.
=124	=124	=124	=124
4D	2d	2f	1a
4E	.	.	.
2F	2A	2d	.
1E	2.B	1g	2r
.	.	.	2g
.	8A	.	.
.	8G	.	.
=125	=125	=125	=125
2.D	2d	2.f	2a
.	2D	.	2b
8C	.	8e	.
8BB	.	8d	.
4AA	2E	4c	2cc
4BB	.	4d	.
2C	[2A	2e	2a
=126	=126	=126	=126
1BB	4A]	2.d	1dd
.	4G#	.	.
.	2G#	.	.
.	.	4e	.
1AA	1A	2f	2.cc
.	.	4e	.
.	.	4d	8b
.	.	.	8a
=127	=127	=127	=127
0r	2r	2.e	4g
.	.	.	4a
.	2G	.	2b
.	.	4d	.
.	2A	2c	2a
.	2B	2d	4g
.	.	.	4f
=128	=128	=128	=128
1C	2c	1G	4e
.	.	.	4f
.	2G	.	4g
.	.	.	4e
2D	2d	1r	2f
2E	4c	.	4e
.	4B	.	4d
=129	=129	=129	=129
2F	4A	2r	1c
.	4B	.	.
2C	2.c	2c	.
2G	.	2d	1r
.	4B	.	.
2G	2B	2e	.
=130	=130	=130	=130
2.F	2A	2f	1r
.	2.d	2d	.
8E	.	.	.
8D	.	.	.
1E	.	2g	2r
.	4c	.	.
.	4c	2g	2g
.	4B	.	.
=131	=131	=131	=131
1D	2.d	2f	2a
.	.	2d	2b
.	8c	.	.
.	8B	.	.
1r	1A	2e	2cc
.	.	2f	2a
=132	=132	=132	=132
0r	2r	2.g	4b
.	.	.	4cc
.	2G	.	4dd
.	.	4f	4b
.	2A	2e	2cc
.	2B	[2g	2b
=133	=133	=133	=133
2r	2c	2g]	1a
2D	2d	2f#	.
2E	2B	2g	2r
2F	[2d	2f	2a
=134	=134	=134	=134
2G	2d]	1e	2b
2A	1c	.	2cc
2F	.	1d	2.dd
[2G	2B	.	.
.	.	.	4cc
=135	=135	=135	=135
2G]	2G	1d	2b
2F	2A	.	2a
2E	2B	[1e	2g
2C	2c	.	[2a
=136	=136	=136	=136
1E	2B	2e]	4a]
.	.	.	4g
.	4A	2c	1g
.	4G	.	.
2D	1A	1d	.
2D	.	.	2f#
=137	=137	=137	=137
2C	2r	1.e	1g
1C	1c	.	.
.	.	.	2r
2C	2c	2e	[2g
=138	=138	=138	=138
1C	1c	1e	2g]
.	.	.	2g
1G	2B	2d	1g
.	2d	2B	.
=139	=139	=139	=139
0r	2e	2c	[0g
.	2B	2d	.
.	2c	2e	.
.	4B	4d	.
.	4A	4c	.
=140	=140	=140	=140
1E	2G	2B	1g]
.	1c	2e	.
2F	.	1d	1r
2G	2B	.	.
=141	=141	=141	=141
2.A	2c	2.c	1r
.	2A	.	.
8G	.	8B	.
8F	.	8A	.
1E	2B	1G	1e
.	2c	.	.
=142	=142	=142	=142
2D	2d	1r	2f
2E	4c	.	2g
.	4B	.	.
2F	2A	2r	2a
2G	2d	2B	4g
.	.	.	4f
=143	=143	=143	=143
2.A	2r	2.c	2e
.	2A	.	2e
8G	.	4d	.
8F	.	.	.
1E	2B	1e	2r
.	2c	.	2e
=144	=144	=144	=144
2D	2d	2A	2f
2E	4c	2r	2g
.	4B	.	.
2F	2A	2r	2a
2G	2d	2B	4g
.	.	.	4f
=145	=145	=145	=145
2A	2c	2c	2e
4G	4B	2d	1a
4F	4A	.	.
1E	1B	1e	.
.	.	.	2g#
=146	=146	=146	=146
0A	0A	0c#	0a
=147	=147	=147	=147
2.c	0r	1r	1r
8B	.	.	.
8A	.	.	.
2B	.	2.g	2r
2c	.	.	[2cc
.	.	8f	.
.	.	8e	.
=148	=148	=148	=148
2A	1r	2f	4cc]
.	.	.	8b
.	.	.	8a
2G	.	2g	2b
2.A	2r	2.e	2cc
.	[2c	.	[2a
8G	.	4e	.
8F	.	.	.
=149	=149	=149	=149
1E	4c]	0e	2a]
.	8B	.	.
.	8A	.	.
.	2B	.	2g#
2r	2c	.	2.a
[2c	[2A	.	.
.	.	.	8g
.	.	.	8f
=150	=150	=150	=150
4c]	2A]	2r	1e
8B	.	.	.
8A	.	.	.
2B	2G#	1e	.
2c	2.A	.	2r
[2A	.	2e	[2cc
.	8G	.	.
.	8F	.	.
=151	=151	=151	=151
2A]	2E	2e	4cc]
.	.	.	8b
.	.	.	8a
2G#	2.e	2e	2b
2.A	.	2.c	2cc
.	4d	.	.
.	[2c	.	[2a
8G	.	4d	.
8F	.	.	.
=152	=152	=152	=152
1E	2c]	2e	4a]
.	.	.	8g#
.	.	.	8f#
.	2B	1e	2g#
1F	1A	.	2.a
.	.	2d	.
.	.	.	4a
=153	=153	=153	=153
1C	2r	2e	0g
.	1c	2c	.
1r	.	1d	.
.	2B	.	.
=154	=154	=154	=154
2r	2c	1A	2r
1A	2A	.	1cc
.	1d	1r	.
2G	.	.	2b
=155	=155	=155	=155
1A	2c	1e	2.cc
.	2A	.	.
.	.	.	8b
.	.	.	8a
2E	2B	1e	2g
[2A	[2c	.	2a
=156	=156	=156	=156
4A]	4c]	2A	1.e
8G#	4d	.	.
8F#	.	.	.
2G#	2.e	2B	.
1A	.	1c	.
.	4d	.	.
.	[2c	.	2f
=157	=157	=157	=157
1G	2c]	1d	1g
.	2B	.	.
2r	2.c	1e	2r
[2C	.	.	[2e
.	4B	.	.
=158	=158	=158	=158
2C]	1A	1r	2e]
2D	.	.	2f
2E	1G	2r	2g
2C	.	[2c	2e
=159	=159	=159	=159
2.F	0r	2c]	2.a
.	.	2d	.
4F	.	.	4a
2E	.	2e	2g
[2D	.	2A	[2f
=160	=160	=160	=160
2D]	1r	2F	2f]
4C	.	2G	4e
4BB	.	.	4d
2AA	2r	2A	2c
2AA	[2A	2c	2e
=161	=161	=161	=161
1D	2A]	1d	1f
.	2B	.	.
1AA	2c	2e	1e
.	2A	2c	.
=162	=162	=162	=162
0r	1d	1f	2r
.	.	.	1a
.	2c	2e	.
.	2B	2d	2b
=163	=163	=163	=163
0r	4A	2e	2cc
.	4G	.	.
.	4F	1f	2a
.	4E	.	.
.	1D	.	1dd
.	.	4e	.
.	.	4d	.
=164	=164	=164	=164
1r	2A	0e	2cc
.	2G#	.	2b
2r	2A	.	2a
[2E	2B	.	[2g
=165	=165	=165	=165
2E]	1c	1r	2g]
2F	.	.	2a
2G	1B	2r	2b
2E	.	[2e	2g
=166	=166	=166	=166
1A	1r	2e]	1cc
.	.	2f#	.
2G	2r	2g	2b
[2F	[2A	2c	[2a
=167	=167	=167	=167
2F]	2A]	2d	2a]
4E	2B	2e	4g
4D	.	.	4f
2C	2c	2r	2e
[2D	2A	2d	[2f
=168	=168	=168	=168
2D]	1d	2A	2f]
4C	.	1A	4e
4BB	.	.	4d
[1AA	2c	.	[1e
.	[2A	[2c	.
=169	=169	=169	=169
1AA]	2A]	2c]	1e]
.	4G	4B	.
.	4F	4A	.
2r	2E	1B	1g
2E	2e	.	.
=170	=170	=170	=170
2E	2e	1r	2g
2F	4d	.	2a
.	4c	.	.
2G	1B	2r	2b
2E	.	2e	2g
=171	=171	=171	=171
1A	1A	2e	1cc
.	.	2f#	.
2G	1r	2g	2b
[2F	.	2c	[2a
=172	=172	=172	=172
2F]	2r	2d	2a]
4E	2G	1e	4g
4D	.	.	4f
1C	2G	.	1e
.	2A	2c	.
=173	=173	=173	=173
0r	2B	2d	2r
.	2G	2d	2g
.	1c	1e	2g
.	.	.	2a
=174	=174	=174	=174
0r	2B	2d	2b
.	1A	1c	2e
.	.	.	1a
.	4G	4B	.
.	4F	4A	.
=175	=175	=175	=175
2r	1E	1B	2g
1E	.	.	1g
.	1r	1c	.
2F	.	.	2a
=176	=176	=176	=176
2G	2r	2B	2b
2E	1G	1e	2g
1C	.	.	1cc
.	2A	2c	.
=177	=177	=177	=177
1G	2B	2d	1b
.	2G	2d	.
[1F	2c	2.f	2a
.	2c	.	[2a
.	.	8e	.
.	.	8d	.
=178	=178	=178	=178
2F]	2A	2c	2a]
4E	2.c	1e	4g
4D	.	.	4f
4C	.	.	4e
4D	4B	.	4f
2E	4A	2c	[2g
.	4G	.	.
=179	=179	=179	=179
1D	1A	1d	2g]
.	.	.	2f#
1G	2G	1B	[1g
.	2G	.	.
=180	=180	=180	=180
0r	2G	2r	1g]
.	2G	2G	.
.	2.B	2G	2r
.	.	2G	2d
.	4c	.	.
=181	=181	=181	=181
0r	2d	2.B	2d
.	2G	.	2d
.	.	4c	.
.	2D	1d	2.f
.	[2D	.	.
.	.	.	4g
=182	=182	=182	=182
0r	4D]	2d	2a
.	4E	.	.
.	4F	4A	2a
.	4G	4B	.
.	2A	4c	4e
.	.	4d	4f
.	4G	4e	4g
.	4F	4f	4a
=183	=183	=183	=183
0r	2E	2g	4b
.	.	.	4cc
.	2D	2.f	1dd
.	1A	.	.
.	.	4e	.
.	.	4e	[2cc
.	.	8d	.
.	.	8c	.
=184	=184	=184	=184
1r	1G	2d	2cc]
.	.	2d	2b
2r	1r	2.c	[1cc
2AA	.	.	.
.	.	4d	.
=185	=185	=185	=185
2AA	2r	1.e	2cc]
2AA	2E	.	4b
.	.	.	4a
2.C	2E	.	1g
.	2E	4d	.
4D	.	4c	.
=186	=186	=186	=186
1.E	2.G	1B	0r
.	4A	.	.
.	2B	1r	.
4AA	[2c	.	.
4BB	.	.	.
=187	=187	=187	=187
4C	4c]	0r	0r
4D	4B	.	.
4E	4G	.	.
4F	4A	.	.
2G	4B	.	.
.	4c	.	.
[2F	[2d	.	.
=188	=188	=188	=188
4F]	2d]	0r	0r
4E	.	.	.
2C	1c	.	.
2D	.	.	.
2D	2B	.	.
=189	=189	=189	=189
2.C	2.c	2r	1r
.	.	2e	.
4D	8B	.	.
.	8A	.	.
2E	2G	2e	2r
2F	2A	2d	2a
=190	=190	=190	=190
1E	1e	2c	2a
.	.	2B	2g
2r	1r	4A	2.cc
.	.	4B	.
2A	.	4c	.
.	.	4d	8b
.	.	.	8a
=191	=191	=191	=191
2A	1r	2e	2cc
2G	.	2e	2b
2.c	2r	1e	2.a
.	2A	.	.
8B	.	.	8g
8A	.	.	8f
=192	=192	=192	=192
2c	2A	1e	2e
2B	2G	.	2g
2A	2c	1r	4f
.	.	.	4e
4G	4B	.	[2g
4F	4A	.	.
=193	=193	=193	=193
2E	2c	0r	4g]
.	.	.	4f
2G	2B	.	1e
1F	1A	.	.
.	.	.	2d
=194	=194	=194	=194
2.E	2B	2r	1e
.	2.c	1e	.
4F	.	.	.
1G	.	.	1r
.	8B	.	.
.	8A	.	.
.	2B	2d	.
=195	=195	=195	=195
1C	1c	2.g	2r
.	.	.	1e
.	.	8f	.
.	.	8e	.
1r	1r	2g	.
.	.	2f	2d
=196	=196	=196	=196
0r	1r	2e	2g
.	.	4d	4f
.	.	4c	4e
.	2r	2B	2g
.	[2A	2A	2f
=197	=197	=197	=197
0r	2A]	2c	1e
.	2G	2B	.
.	2.c	4A	2e
.	.	4B	.
.	.	4c	[2a
.	8B	4d	.
.	8A	.	.
=198	=198	=198	=198
0r	2c	2e	2a]
.	2B	2d	2g
.	2A	2.e	2cc
.	2G#	.	[2b
.	.	4d	.
=199	=199	=199	=199
0r	2A	2c#	4b]
.	.	.	4a
.	2D	2d	1a
.	1E	1B	.
.	.	.	2g#
=200	=200	=200	=200
0r	0A	0A	0a
!! Et exspecto
*Ibass	*Itenor	*Icalto	*Icant
!Bassus	!Tenor	!Altus	!Cantus
*clefF4	*clefGv2	*clefG2	*clefG2
*k[]	*k[]	*k[]	*k[]
*A:aeo	*A:aeo	*A:aeo	*A:aeo
*M3/2	*M3/2	*M3/2	*M3/2
=201	=201	=201	=201
1E	1B	1e	1g#
2E	2B	2e	2g#
=202	=202	=202	=202
1D	1d	1f#	1a
2D	2d	2f#	2a
=203	=203	=203	=203
2.G	2.d	2.g	2.b
4G	4d	4g	4b
2G	2B	2g	2b
=204	=204	=204	=204
2C	2G	2e	2cc
1F	1A	2.c	1a
.	.	4d	.
=205	=205	=205	=205
2E	2B	2e	1g
2C	2c	2e	.
2D	2A	2d	2f
=206	=206	=206	=206
2C	2.c	2g	2e
1G	.	1g	1d
.	4B	.	.
.	2B	.	.
!! Et vitam
*Ibass	*Itenor	*Icalto	*Icant
!Bassus	!Tenor	!Altus	!Cantus
*clefF4	*clefGv2	*clefG2	*clefG2
*k[]	*k[]	*k[]	*k[]
*A:aeo	*A:aeo	*A:aeo	*A:aeo
*M4/2	*M4/2	*M4/2	*M4/2
=207	=207	=207	=207
[0C	0c	1g	2c
.	.	.	2e
.	.	2r	2e
.	.	2e	2e
=208	=208	=208	=208
1C]	2r	2e	2.g
.	2E	2e	.
.	.	.	4a
1r	2E	2.g	2b
.	2E	.	2cc
.	.	8f	.
.	.	8e	.
=209	=209	=209	=209
0r	2.G	1d	2b
.	.	.	2.dd
.	8F	.	.
.	8E	.	.
.	2D	1f	.
.	.	.	4cc
.	2F	.	4a
.	.	.	4b
=210	=210	=210	=210
0r	2C	2e	2cc
.	1G	1d	4b
.	.	.	4a
.	.	.	2b
.	2A	2c	[2a
=211	=211	=211	=211
2r	1E	0B	2a]
2E	.	.	4g#
.	.	.	4f#
2E	2r	.	2g#
2E	2e	.	2g#
=212	=212	=212	=212
2.F	2d	4A	1a
.	.	4B	.
.	2.c	4c	.
8E	.	4d	.
8D	.	.	.
2C	.	2e	1r
.	4B	.	.
[2F	4A	2d	.
.	4G	.	.
=213	=213	=213	=213
2F]	2A	2.c	0r
2E	2G	.	.
.	.	8B	.
.	.	8A	.
2.D	2.F	4B	.
.	.	4A	.
.	.	[2A	.
4C	4E	.	.
=214	=214	=214	=214
2BB	2D	2A]	1r
2BB	2D	2G#	.
[1AA	1E	2.A	2r
.	.	.	2a
.	.	4B	.
=215	=215	=215	=215
0AA]	2r	1c	2a
.	2A	.	2a
.	2A	2r	2.cc
.	2A	2e	.
.	.	.	8b
.	.	.	8a
=216	=216	=216	=216
0r	2.c	2e	2g
.	.	2e	2cc
.	8B	.	.
.	8A	.	.
.	2G	2g	2b
.	[2c	[2e	[2a
=217	=217	=217	=217
1r	2c]	4e]	4a]
.	.	4c	4g
.	2B	2d	2g
2r	2.A	1c	2f
2A	.	.	[2e
.	4G	.	.
=218	=218	=218	=218
2A	2F	1r	2e]
2A	2F	.	2d
2c	1E	2r	4e
.	.	.	4f
4B	.	2e	4g
4A	.	.	4a
=219	=219	=219	=219
2G	2r	2e	2b
1c	1e	2e	2.g
.	.	1g	.
.	.	.	4a
2B	[2d	.	4b
.	.	.	4g
=220	=220	=220	=220
1.A	2d]	2f	4a
.	.	.	4b
.	2c	2e	1cc
.	2A	4f	.
.	.	4e	.
2G	2B	[2e	[2b
=221	=221	=221	=221
2F	2c	2e]	4b]
.	.	.	4a
2F	4B	2d	1a
.	4A	.	.
1E	1B	[1e	.
.	.	.	2g#
=222	=222	=222	=222
0AA	2.c	0e]	1a
.	4B	.	.
.	2A	.	2.cc
.	2G	.	.
.	.	.	4b
=223	=223	=223	=223
[0D	2F	1r	2a
.	2E	.	2g
.	2D	2.a	2f
.	2E	.	2e
.	.	4g	.
=224	=224	=224	=224
0D]	2F	2f	2d
.	2G	2e	2e
.	1A	1d	1f
=225	=225	=225	=225
0AA	0A	0c#	0e
==	==	==	==
*-	*-	*-	*-
!!!CDT: 1525/^1526/-1594/2/2
!!!OCY: Italia
!!!AGN: Mass (Parody)
!!!AST: renaissance, vocal
!!!ASW: Motet 1518 (Moulu)
!!!PWK: Masses, Book 10
!!!RNB: Cadence finals: E,G,C
!!!YOR: Le Opere Complete, v. 27, p. 1
!!!YOO: Rome, Italy: Fratelli Scalera
!!!END: 1992//
!!!EED: John Miller
!!!YEC: Copyright 2000, John Miller
!!!YEN: United States of America
!!!YEM: Rights to all derivative electronic formats reserved.
!!!YEM: Refer to licensing agreement for further details.
!!!YEM: This file must be accompanied by the licensing agreement.
!!!YEM: A copy of the licensing agreement may be found at http://www.music-cog.ohio-state.edu/HumdrumDatabases/Palestrina/license.txt
!!!EMD: converted to Humdrum by Bret Aarden
